X:17
C:Page 08
T:Lord Mcdonalds Reel. MBe.17
S:Matthew Betham MS, Towcett Cumbria, 1815
O:England;Cumbria;Towcett
Z:VMP – Hugh Taylor, 2012
M:C
L:1/8
Q:1/2=100
R:.Reel
N:See a version in Harrison.
N:NB-G note written as a crotchet. I have changed it to a quaver.
K:G
B|d3 e dBgB|dBgB aAAB|d3 e dBgB|A/B/c BA BGG”^Fine”||
z|”^rest added”DGBG AGBG|DGBG AGEF|DGBG AGBG|dedc BGG “^NB”G|
dgbg agbg|dgbg ageg|agfe gfed|efga bggg”^D.C.”|]

